X: 30480
T: Old Woman Of The Milldust
R: jig
M: 6/8
K: Amixolydian
|:ABA a2 e|g2 f edB|ABA a2e|g2 e dBG|
ABA a2 e|g2 d efg|agf gfe|d2 e dBG:|
|:a2A ABA|ABA ecA|a2 A ABA|g2 e dBG|
a2 A ABA|ABA g3|agf gfe|d2 e dBG:|

